X:1
T:Title
%%score { 1 | 2 }
L:1/8
Q:1/4=100
M:4/4
K:Ab
V:1 treble nm="Grand Piano"
V:2 bass 
V:1
 [CE]2 [CE]>[CE] [CA]2 [DB]2 | [Ec]2 [Ec]2 [Ec]3 [EA] | B2 B2 B2 c2 |[M:7/8] d2 d2 d3 |[M:1/8] B | %5
w: Charles~H.~Gabriel * * * *|||||
[M:4/4] c2 c2 c2 d2 | [Ee]2 [Ee]2 [Ee]3 [Fd] | cccc B2 B2 | [CA]6 z2 | [Ec]2 [CE]>[CA] c4 | %10
w: |||||
 [Fd]2 [DF]>[Fd] [Ec]3 [Ec] | [EB]2 [EB]2 [=Dc]2 [A=d]2 |[M:3/4] [Ge]6 |[M:1/4] [Ge]2 | %14
w: ||||
[M:4/4] e2 c2 c3 [EA] | [FA]2 [FA]2 [DF]2 [Fd]2 | cccc B2 B2 | [CA]6 z2 |] %18
w: ||||
V:2
 [A,,A,]2 [A,,A,]>[A,,A,] [A,,A,]2 [A,,A,]2 | [A,,A,]2 [A,,A,]2 [A,,A,]3 [C,A,] | %2
 [E,G,E]2 [E,G,E]2 [E,G,E]2 [E,A,E]2 |[M:7/8] [E,B,E]2 [E,B,E]2 [E,B,E]3 |[M:1/8] [E,G,E] | %5
[M:4/4] [A,E]2 [A,E]2 [A,E]2 [A,B,E]2 | [A,C]2 [A,C]2 [C,A,]3 [D,A,] | %7
 [E,A,E][E,A,E][E,A,E][E,A,E] [E,G,D]2 [E,G,D]2 | [A,,A,]6 z2 | [A,,A,]2 [A,,A,]>[A,,A,] [A,E]4 | %10
 [D,A,]2 [D,A,]>[D,A,] [A,,A,]3 [A,,A,] | [B,,G,]2 [B,,G,]2 [B,,F,]2 [B,,B,]2 |[M:3/4] [E,B,]6 | %13
[M:1/4] [E,D]2 |[M:4/4][K:treble] [A,CA]2 [A,E]2[K:bass] [A,E]3 [C,A,] | %15
 [D,D]2 [D,D]2 [D,A,]2 [D,A,]2 | [E,A,E][E,A,E][E,A,E][E,A,E] [E,G,D]2 [E,G,D]2 | [A,,A,]6 z2 |] %18

